src/components/BobecoPage/bobecoLogo.svg

<svg xmlns="http://www.w3.org/2000/svg" width="402" height="402" fill="none"><path fill="#BDC973" fill-opacity=".7" fill-rule="evenodd" d="M219.358-132.267c58.745-10.284 122.148 7.36 161.325 71.663 41.16 67.558 55.062 166.097 35.73 251.774-17.715 78.511-74.877 112.287-126.059 148.556-51.759 36.678-105.365 80.752-159.969 54.13C68.155 363.516 7.458 293.058.469 198.396c-6.568-88.969 57.256-145.391 99.987-209.942 35.25-53.252 68.365-111.874 118.902-120.721Z" clip-rule="evenodd"/><path fill="#F6F1D1" d="M248.12 250.092c40.384 0 73.121-32.737 73.121-73.121 0-40.383-32.737-73.12-73.121-73.12-40.383 0-73.121 32.737-73.121 73.12 0 40.384 32.738 73.121 73.121 73.121Z"/><path fill="#9F7E69" stroke="#4C241D" stroke-linecap="round" stroke-linejoin="round" stroke-width="6.802" d="M156.333 268.053h74.822v10.203h-74.822v-10.203Z"/><path fill="#9F7E69" d="M248.159 186.43s27.208-6.802 44.213-23.807l10.203 6.802s-11.186 6.527-13.604 17.005c-10.203 44.213-47.614 44.213-47.614 44.213"/><path stroke="#4C241D" stroke-linecap="round" stroke-linejoin="round" stroke-width="6.802" d="M248.159 186.43s27.208-6.802 44.213-23.807l10.203 6.802s-11.186 6.527-13.604 17.005c-10.203 44.213-47.614 44.213-47.614 44.213M163.135 155.821h61.218c2.706 0 5.301 1.075 7.214 2.989a10.199 10.199 0 0 1 2.989 7.214h-81.624"/><path stroke="#4C241D" stroke-linecap="round" stroke-linejoin="round" stroke-width="6.802" d="m240.204 177.928 4.506-71.723c.619-9.884-4.754-18.403-11.611-18.403h-78.712c-6.856 0-12.243 8.52-11.611 18.403l4.507 71.723"/><path fill="#BDC973" stroke="#4C241D" stroke-linecap="round" stroke-linejoin="round" stroke-width="6.802" d="M232.124 268.053h-76.76a21.368 21.368 0 0 1-20.122-14.184 21.361 21.361 0 0 1-1.195-8.602l4.353-65.299a14.923 14.923 0 0 1 14.889-13.944h80.926a14.923 14.923 0 0 1 14.89 13.944l4.353 65.299a21.375 21.375 0 0 1-5.721 16.024 21.38 21.38 0 0 1-15.613 6.762Z"/><path stroke="#4C241D" stroke-linecap="round" stroke-linejoin="round" stroke-width="6.802" d="M231.155 278.256h44.212M193.744 155.821v-10.203"/><path fill="#9F7E69" stroke="#4C241D" stroke-linecap="round" stroke-linejoin="round" stroke-width="6.802" d="M202.246 135.415h-17.005a5.101 5.101 0 0 0 0 10.203h17.005a5.101 5.101 0 1 0 0-10.203ZM219.251 81h-51.014a5.102 5.102 0 0 0-5.102 5.102v3.4a5.102 5.102 0 0 0 5.102 5.102h51.014a5.102 5.102 0 0 0 5.102-5.102v-3.4A5.102 5.102 0 0 0 219.251 81Z"/><path fill="#A9BA5A" stroke="#4C241D" stroke-linecap="round" stroke-linejoin="round" stroke-width="4.404" d="M115.551 159.259c7.34 8.119 25.528 8.536 25.528 8.536s1.414-18.138-5.926-26.257c-7.34-8.12-25.53-8.538-25.53-8.538s-1.414 18.139 5.928 26.259v0Z"/><path fill="#77A052" stroke="#4C241D" stroke-linecap="round" stroke-linejoin="round" stroke-width="4.404" d="M121.369 164.078c8.681-1.018 19.819 8.298 19.819 8.298s-8.687 11.643-17.368 12.66c-8.681 1.017-19.82-8.3-19.82-8.3s8.688-11.641 17.369-12.658Z"/><path fill="#4C241D" stroke="#4C241D" stroke-linecap="round" stroke-linejoin="round" stroke-width="6.8" d="M180.561 220.868c0 .706-.221 1.397-.635 1.985a3.738 3.738 0 0 1-1.692 1.316 3.966 3.966 0 0 1-2.178.203 3.837 3.837 0 0 1-1.93-.978 3.513 3.513 0 0 1-1.031-1.829 3.4 3.4 0 0 1 .214-2.065 3.621 3.621 0 0 1 1.388-1.604 3.925 3.925 0 0 1 2.094-.602c1 0 1.959.377 2.666 1.047a3.481 3.481 0 0 1 1.104 2.527v0ZM172.089 249.427c2.785 0 5.043-2.14 5.043-4.78 0-2.641-2.258-4.781-5.043-4.781s-5.043 2.14-5.043 4.781c0 2.64 2.258 4.78 5.043 4.78ZM192.47 210.785c2.785 0 5.042-2.14 5.042-4.78s-2.257-4.781-5.042-4.781c-2.785 0-5.043 2.141-5.043 4.781 0 2.64 2.258 4.78 5.043 4.78ZM156.042 225.586c2.785 0 5.043-2.141 5.043-4.781 0-2.64-2.258-4.78-5.043-4.78s-5.042 2.14-5.042 4.78 2.257 4.781 5.042 4.781ZM216.327 217.894c0 .946-.295 1.871-.85 2.658a5 5 0 0 1-2.263 1.762 5.3 5.3 0 0 1-2.915.272 5.127 5.127 0 0 1-2.583-1.309 4.708 4.708 0 0 1-1.381-2.448 4.55 4.55 0 0 1 .287-2.764 4.844 4.844 0 0 1 1.859-2.146 5.249 5.249 0 0 1 2.803-.805c1.337 0 2.62.504 3.565 1.401a4.66 4.66 0 0 1 1.478 3.379v0ZM237 219.388a3.44 3.44 0 0 1-.636 1.985 3.737 3.737 0 0 1-1.691 1.316 3.966 3.966 0 0 1-2.178.203 3.837 3.837 0 0 1-1.93-.978 3.522 3.522 0 0 1-1.032-1.829 3.407 3.407 0 0 1 .215-2.065 3.621 3.621 0 0 1 1.388-1.604 3.946 3.946 0 0 1 3.537-.33c.457.18.873.443 1.223.775.35.332.627.725.817 1.159.189.434.287.898.287 1.368v0ZM197.808 231.272c0 .707-.222 1.398-.636 1.985a3.738 3.738 0 0 1-1.691 1.317 3.966 3.966 0 0 1-2.178.203 3.837 3.837 0 0 1-1.93-.978 3.528 3.528 0 0 1-1.032-1.83 3.398 3.398 0 0 1 .215-2.064 3.621 3.621 0 0 1 1.388-1.604 3.916 3.916 0 0 1 2.094-.602c1 0 1.959.376 2.666 1.046a3.485 3.485 0 0 1 1.104 2.527v0ZM219.12 247.942c2.785 0 5.043-2.14 5.043-4.78s-2.258-4.781-5.043-4.781-5.042 2.141-5.042 4.781c0 2.64 2.257 4.78 5.042 4.78Z"/></svg>

<svg width="402" height="402" viewBox="0 0 402 402" fill="none" xmlns="http://www.w3.org/2000/svg">
<path fill-rule="evenodd" clip-rule="evenodd" d="M219.358 -132.267C278.103 -142.551 341.506 -124.907 380.683 -60.604C421.843 6.95448 435.745 105.493 416.413 191.17C398.698 269.681 341.536 303.457 290.354 339.726C238.595 376.404 184.989 420.478 130.385 393.856C68.1542 363.516 7.45798 293.058 0.469408 198.396C-6.09889 109.427 57.7248 53.005 100.456 -11.5463C135.706 -64.7976 168.821 -123.42 219.358 -132.267Z" fill="#BDC973" fill-opacity="0.7"/>
<path d="M248.12 250.092C288.504 250.092 321.241 217.355 321.241 176.971C321.241 136.588 288.504 103.851 248.12 103.851C207.737 103.851 174.999 136.588 174.999 176.971C174.999 217.355 207.737 250.092 248.12 250.092Z" fill="#F6F1D1"/>
<path d="M156.333 268.053H231.155V278.256H156.333V268.053Z" fill="#9F7E69" stroke="#4C241D" stroke-width="6.80194" stroke-linecap="round" stroke-linejoin="round"/>
<path d="M248.159 186.43C248.159 186.43 275.367 179.628 292.372 162.623L302.575 169.425C302.575 169.425 291.389 175.952 288.971 186.43C278.768 230.643 241.357 230.643 241.357 230.643" fill="#9F7E69"/>
<path d="M248.159 186.43C248.159 186.43 275.367 179.628 292.372 162.623L302.575 169.425C302.575 169.425 291.389 175.952 288.971 186.43C278.768 230.643 241.357 230.643 241.357 230.643" stroke="#4C241D" stroke-width="6.80194" stroke-linecap="round" stroke-linejoin="round"/>
<path d="M163.135 155.821H224.353C227.059 155.821 229.654 156.896 231.567 158.81C233.481 160.723 234.556 163.318 234.556 166.024H152.932" stroke="#4C241D" stroke-width="6.80194" stroke-linecap="round" stroke-linejoin="round"/>
<path d="M240.204 177.928L244.71 106.205C245.329 96.3214 239.956 87.8019 233.099 87.8019H154.387C147.531 87.8019 142.144 96.3214 142.776 106.205L147.283 177.928" stroke="#4C241D" stroke-width="6.80194" stroke-linecap="round" stroke-linejoin="round"/>
<path d="M232.124 268.053H155.364C152.439 268.053 149.544 267.452 146.861 266.288C144.177 265.124 141.761 263.421 139.762 261.284C137.764 259.148 136.225 256.624 135.242 253.869C134.259 251.114 133.852 248.186 134.047 245.267L138.4 179.968C138.649 176.188 140.325 172.644 143.09 170.055C145.855 167.466 149.501 166.025 153.289 166.024H234.215C238.004 166.025 241.65 167.466 244.415 170.055C247.18 172.644 248.856 176.188 249.105 179.968L253.458 245.267C253.653 248.187 253.246 251.116 252.261 253.873C251.277 256.629 249.737 259.154 247.737 261.291C245.736 263.427 243.318 265.13 240.633 266.293C237.947 267.457 235.051 268.056 232.124 268.053Z" fill="#BDC973" stroke="#4C241D" stroke-width="6.80194" stroke-linecap="round" stroke-linejoin="round"/>
<path d="M231.155 278.256H275.367" stroke="#4C241D" stroke-width="6.80194" stroke-linecap="round" stroke-linejoin="round"/>
<path d="M193.744 155.821V145.618" stroke="#4C241D" stroke-width="6.80194" stroke-linecap="round" stroke-linejoin="round"/>
<path d="M202.246 135.415H185.241C182.424 135.415 180.14 137.699 180.14 140.517C180.14 143.334 182.424 145.618 185.241 145.618H202.246C205.064 145.618 207.348 143.334 207.348 140.517C207.348 137.699 205.064 135.415 202.246 135.415Z" fill="#9F7E69" stroke="#4C241D" stroke-width="6.80194" stroke-linecap="round" stroke-linejoin="round"/>
<path d="M219.251 81H168.237C165.419 81 163.135 83.284 163.135 86.1015V89.5024C163.135 92.3199 165.419 94.6039 168.237 94.6039H219.251C222.069 94.6039 224.353 92.3199 224.353 89.5024V86.1015C224.353 83.284 222.069 81 219.251 81Z" fill="#9F7E69" stroke="#4C241D" stroke-width="6.80194" stroke-linecap="round" stroke-linejoin="round"/>
<path d="M115.551 159.259C122.891 167.378 141.079 167.795 141.079 167.795C141.079 167.795 142.493 149.657 135.153 141.538C127.813 133.418 109.623 133 109.623 133C109.623 133 108.209 151.139 115.551 159.259V159.259Z" fill="#A9BA5A" stroke="#4C241D" stroke-width="4.40438" stroke-linecap="round" stroke-linejoin="round"/>
<path d="M121.369 164.078C130.05 163.06 141.188 172.376 141.188 172.376C141.188 172.376 132.501 184.019 123.82 185.036C115.139 186.053 104 176.736 104 176.736C104 176.736 112.688 165.095 121.369 164.078Z" fill="#77A052" stroke="#4C241D" stroke-width="4.40438" stroke-linecap="round" stroke-linejoin="round"/>
<path d="M180.561 220.868C180.561 221.574 180.34 222.265 179.926 222.853C179.511 223.44 178.923 223.899 178.234 224.169C177.545 224.439 176.787 224.51 176.056 224.372C175.325 224.234 174.653 223.894 174.126 223.394C173.599 222.895 173.24 222.258 173.095 221.565C172.949 220.872 173.024 220.153 173.309 219.5C173.594 218.847 174.077 218.289 174.697 217.896C175.317 217.504 176.046 217.294 176.791 217.294C177.791 217.294 178.75 217.671 179.457 218.341C180.164 219.011 180.561 219.92 180.561 220.868V220.868Z" fill="#4C241D" stroke="#4C241D" stroke-width="6.8" stroke-linecap="round" stroke-linejoin="round"/>
<path d="M172.089 249.427C174.874 249.427 177.132 247.287 177.132 244.647C177.132 242.006 174.874 239.866 172.089 239.866C169.304 239.866 167.046 242.006 167.046 244.647C167.046 247.287 169.304 249.427 172.089 249.427Z" fill="#4C241D" stroke="#4C241D" stroke-width="6.8" stroke-linecap="round" stroke-linejoin="round"/>
<path d="M192.47 210.785C195.255 210.785 197.512 208.645 197.512 206.005C197.512 203.365 195.255 201.224 192.47 201.224C189.685 201.224 187.427 203.365 187.427 206.005C187.427 208.645 189.685 210.785 192.47 210.785Z" fill="#4C241D" stroke="#4C241D" stroke-width="6.8" stroke-linecap="round" stroke-linejoin="round"/>
<path d="M156.042 225.586C158.827 225.586 161.085 223.445 161.085 220.805C161.085 218.165 158.827 216.025 156.042 216.025C153.257 216.025 151 218.165 151 220.805C151 223.445 153.257 225.586 156.042 225.586Z" fill="#4C241D" stroke="#4C241D" stroke-width="6.8" stroke-linecap="round" stroke-linejoin="round"/>
<path d="M216.327 217.894C216.327 218.84 216.032 219.765 215.477 220.552C214.923 221.338 214.135 221.952 213.214 222.314C212.292 222.676 211.277 222.771 210.299 222.586C209.32 222.402 208.421 221.946 207.716 221.277C207.01 220.609 206.53 219.756 206.335 218.829C206.14 217.901 206.24 216.939 206.622 216.065C207.004 215.191 207.651 214.444 208.481 213.919C209.311 213.394 210.286 213.114 211.284 213.114C212.621 213.114 213.904 213.618 214.849 214.515C215.795 215.411 216.326 216.627 216.327 217.894V217.894Z" fill="#4C241D" stroke="#4C241D" stroke-width="6.8" stroke-linecap="round" stroke-linejoin="round"/>
<path d="M237 219.388C237 220.094 236.779 220.785 236.364 221.373C235.95 221.96 235.362 222.418 234.673 222.689C233.984 222.959 233.226 223.03 232.495 222.892C231.764 222.754 231.092 222.414 230.565 221.914C230.038 221.415 229.679 220.778 229.533 220.085C229.388 219.391 229.463 218.673 229.748 218.02C230.033 217.367 230.516 216.809 231.136 216.416C231.756 216.024 232.485 215.814 233.23 215.814C233.725 215.814 234.215 215.906 234.673 216.086C235.13 216.266 235.546 216.529 235.896 216.861C236.246 217.193 236.523 217.586 236.713 218.02C236.902 218.454 237 218.918 237 219.388V219.388Z" fill="#4C241D" stroke="#4C241D" stroke-width="6.8" stroke-linecap="round" stroke-linejoin="round"/>
<path d="M197.808 231.272C197.808 231.979 197.586 232.67 197.172 233.257C196.758 233.845 196.169 234.303 195.481 234.574C194.792 234.844 194.034 234.915 193.303 234.777C192.572 234.639 191.9 234.299 191.373 233.799C190.846 233.299 190.487 232.662 190.341 231.969C190.196 231.276 190.27 230.558 190.556 229.905C190.841 229.252 191.324 228.694 191.944 228.301C192.564 227.908 193.293 227.699 194.038 227.699C195.038 227.699 195.997 228.075 196.704 228.745C197.41 229.415 197.808 230.324 197.808 231.272V231.272Z" fill="#4C241D" stroke="#4C241D" stroke-width="6.8" stroke-linecap="round" stroke-linejoin="round"/>
<path d="M219.12 247.942C221.905 247.942 224.163 245.802 224.163 243.162C224.163 240.522 221.905 238.381 219.12 238.381C216.335 238.381 214.078 240.522 214.078 243.162C214.078 245.802 216.335 247.942 219.12 247.942Z" fill="#4C241D" stroke="#4C241D" stroke-width="6.8" stroke-linecap="round" stroke-linejoin="round"/>
</svg>
